X: 1
T: The Soldier's Song    [G]
T: Amhr\'an na bhFiann
C: music: Patrick Heeney (1881-1911)
R: march
Z: 2020 John Chambers <jc:trillian.mit.edu>
M: C
L: 1/8
K: G
[|\
"G"G3A B2G2 | D6 D2 | "C"E3E C2E2 | "G"D4 D4 || "Em"G4 "B7"F4 | "Em"E6 FG |
"D"A3B "A7"A2E2 | "D"F6 "D7"z2 || "G"G3A B2G2 | D6 D2 | "C"E3E C2E2 | "G"D4 D4 ||
"Bm"F4 F3F | F2F2 "A7"E3E | "D"D6 D2 || "Am"C3C "D7"CA,B,C | "G"D3E D2G2 | "F#7"F3E "Am"F2E2 |
"D7"D2C2 A,2"D+"D2 || "G"B,2G,B, "D"D3D | "Em"EF"C"GA "B7"HB2 "C"GE | "G"DG2B "D7"A3G | "G"G6 z2 |]

%%sep 1 0 500
%%sep 1 0 500

%%sep 1 1 500
%%sep 1 1 500

